X: 4
T:The Bog of Allen
R:Reel
C:Ed Reavy
S:The Collected Compostions of Ed Reavy
M:2/4
L:1/8
Z:Joe Reavy
N:The Bog of Allen. Mentioned eloquently in Joyce's 
N:short story, "The Dead" (in Dubliners). This 
N:desolate region reminds us of Yeats' line 
N:"the drifting, indefinite bitterness of life" 
N:Ed has always felt that far too much is made 
N:of Ireland's greenery and not enough said 
N:of her terrible greyness. Ed has lived to 
N:see the whole of Ireland, and he has tried 
N:to get as much of it as he could into his own tunes.
K:G
dc|BF (3AGF G=FDE|=F AF^FDCB,|DG (3AFF GABc|dgfa gfdc|
BG (3GFG G=FDE|[A,2=F2] AF ^FDCB,|DG (3AGF GABc |dged c2:|
Bc|dg (3gfg bfag|dggf dcBc|dg (3gfg ag gfg|defd c2 Bc|
dg (3gfg bgag|dggf dcBA|GABc defa|gefd c2:|
